X: 38
T: No_132_Turkey_Dance_Song.krn
N: Derived from No_132_Turkey_Dance_Song.krn
%%abc-version 2.0
%%abcx-abcm2ps-target-version 5.9.1 (29 Sep 2008)
%%abc-creator hum2abc beta
%%abcx-conversion-date 2019/03/15 08:38:45
%%humdrum-veritas 2423154685
%%humdrum-veritas-data 1256085339
%%linebreak <none>
%%barnumbers 0
L: 1/8
M: 2/4
K: F clef=bass
[K:clef=bass][M:2/4]z2z3/ F,/ ]|:  
C3/C/ G,3/B,/ | 
F,3/F,/C,2 | 
(D,3/C,/) C, z/ F,/ | 
F,3/F,/ G,3/B,/ ||  
[M:3/4]F,3/F,/ C, z (D,3/C,/) ||  
[M:2/4]F,2z3/ F,/ :|]  
[M:2/4]F,2z2 |]  



